icons/bag-chevron-right-outline.svg

<svg xmlns="http://www.w3.org/2000/svg" width="24" height="24" viewBox="0 0 24 24">
  <path d="M14,2 C15.5976809,2 16.9036609,3.24891996 16.9949073,4.82372721 L17,5 L17,6 L19,6 C20.5976809,6 21.9036609,7.24891996 21.9949073,8.82372721 L22,9 L22,19 C22,20.5976809 20.75108,21.9036609 19.1762728,21.9949073 L19,22 L5,22 C3.40231912,22 2.09633912,20.75108 2.00509269,19.1762728 L2,19 L2,9 C2,7.40231912 3.24891996,6.09633912 4.82372721,6.00509269 L5,6 L7,6 L7,5 C7,3.40231912 8.24891996,2.09633912 9.82372721,2.00509269 L10,2 L14,2 Z M19,8 L5,8 C4.48716416,8 4.06449284,8.38604019 4.00672773,8.88337887 L4,9 L4,19 C4,19.5128358 4.38604019,19.9355072 4.88337887,19.9932723 L5,20 L19,20 C19.5128358,20 19.9355072,19.6139598 19.9932723,19.1166211 L20,19 L20,9 C20,8.44771525 19.5522847,8 19,8 Z M11.6128994,10.2097046 L11.7071068,10.2928932 L14.7071068,13.2928932 C15.0675907,13.6533772 15.0953203,14.2206082 14.7902954,14.6128994 L14.7071068,14.7071068 L11.7071068,17.7071068 C11.3165825,18.0976311 10.6834175,18.0976311 10.2928932,17.7071068 C9.93240926,17.3466228 9.90467972,16.7793918 10.2097046,16.3871006 L10.2928932,16.2928932 L12.585,14 L10.2928932,11.7071068 C9.93240926,11.3466228 9.90467972,10.7793918 10.2097046,10.3871006 L10.2928932,10.2928932 C10.6533772,9.93240926 11.2206082,9.90467972 11.6128994,10.2097046 Z M14,4 L10,4 C9.48716416,4 9.06449284,4.38604019 9.00672773,4.88337887 L9,5 L9,6 L15,6 L15,5 C15,4.48716416 14.6139598,4.06449284 14.1166211,4.00672773 L14,4 Z"/>
</svg>

<svg xmlns="http://www.w3.org/2000/svg" viewBox="0 0 24 24">
  <path d="M14 2a3 3 0 0 1 3 2.82V6h2a3 3 0 0 1 3 2.82V19a3 3 0 0 1-2.82 3H5a3 3 0 0 1-3-2.82V9a3 3 0 0 1 2.82-3H7V5a3 3 0 0 1 2.82-3H14zm5 6H5a1 1 0 0 0-1 .88V19a1 1 0 0 0 .88 1H19a1 1 0 0 0 1-.88V9a1 1 0 0 0-1-1zm-7.39 2.21.1.08 3 3a1 1 0 0 1 .08 1.32l-.08.1-3 3a1 1 0 0 1-1.5-1.32l.08-.1L12.6 14l-2.3-2.3a1 1 0 0 1-.08-1.31l.08-.1a1 1 0 0 1 1.32-.08zM14 4h-4a1 1 0 0 0-1 .88V6h6V5a1 1 0 0 0-.88-1H14z"/>
</svg>
